X:3501
T:Lafferty's Reel
T:The Woman I Never Forgot
T:The Glens of Atherlow
O:england
C:Trad
R:Reel
M:C
K:Em
L:1/8
B2 AF BFAF | E2 EF ED B,2 | B2 AF BFAF | DFAF FEEA |
| B2 AF BFAF |E2 EF ED B,A,| B,EEE DEFA |1 BdAF FEEA :|2 BdAF FEE2 |
|: eBBB efge | d2 fd Adfd | eBBB egfe | dBAF FEEd |
| eBBB efge | d2 fd Adfd | B3 d e2 fe |1 dBAF FEEd :|2 dBAF FEE2 |


